!!!ONB: MCCC : IFC0059_02 : Extracted Monophonic Melody
!!!COM: Chopin, Frédéric
!!!OPR: Mazurkas
!!!OMV: 2
!!!SCT: Op.68 (Posthumous)
!!!ODT: 1826///
**kern
*thru
*staff1
*Ipiano
*>A
*clefG2
*k[b-e-]
*g:
*M3/4
*MM144
4d
=1
8dd
8ee-
4dd
4a
=2
4.b-
8g
8dd
8ee-
=3
8ff
8gg
4ff
4cc
=4
4dd
4r
8dd
8dd
=5
8dd
8ee-
4dd
4a
=6
8b-
8a
4g
4cc
=7
8g
8a
4b-
4cc
=8
8g
8a
4b-
4cc
=9
8dd
8ee-
4dd
4a
=10
4.b-
8g
8dd
8ee-
=11
8ff
8gg
4ff
4cc
=12
4dd
4r
8dd
8dd
=13
8dd
8ee-
4dd
4a
=14
4b-
8g
8bb-
8aa
8gg
=15
8gg
8ff
8ee-
8ee-
8dd
8cc
=16
8b-
8a
2g
=17
*>B
2.g
=18
12a
12g
12f
4b-
4dd
=19
2.g
=20
12a
12g
12f
4b-
8dd
8ee-
=21
12ff
12gg
12ff
4ee
8cc
8dd
=22
12ee-
12ff
12ee-
4dd
4b-
=23
12dd-
12ee-
12dd-
4cc
8a-
8b-
=24
12cc-
12dd-
12cc-
4b-
4g-
=25
2.g
=26
12a
12g
12f
4b-
4dd
=27
2.g
=28
12a
12g
12f
4b-
8dd
8ee-
=29
12ff
12gg
12ff
4ee
8cc
8dd
=30
12ee-
12ff
12ee-
4dd
8b-
8cc
=31
12dd-
12ee-
12dd-
4cc
8dd
8cc
=32
4b-
4bb-
4bbb-
=33
*>B
2.g
=34
12a
12g
12f
4b-
4dd
=35
2.g
=36
12a
12g
12f
4b-
8dd
8ee-
=37
12ff
12gg
12ff
4ee
8cc
8dd
=38
12ee-
12ff
12ee-
4dd
4b-
=39
12dd-
12ee-
12dd-
4cc
8a-
8b-
=40
12cc-
12dd-
12cc-
4b-
4g-
=41
2.g
=42
12a
12g
12f
4b-
4dd
=43
2.g
=44
12a
12g
12f
4b-
8dd
8ee-
=45
12ff
12gg
12ff
4ee
8cc
8dd
=46
12ee-
12ff
12ee-
4dd
8b-
8cc
=47
12dd-
12ee-
12dd-
4cc
8dd
8cc
=48
4b-
4bb-
4bbb-
=49
*>C
8d
8e-
4d
4a
=50
4g
4.f#
8e-
=51
8d
8e-
4d
4a
=52
12g
12a
12g
4f#
4e-
=53
8d
8e-
4d
4cc
=54
8b
8b-
4a
8a-
8g
=55
8f#
8cc#
4.dd
8ee-
=56
8dd
8ee-
8dd
8ee-
8dd
8ee-
=57
8dd
8ee-
4dd
4a
=58
4.b-
8g
8dd
8ee-
=59
8ff
8gg
4ff
4cc
=60
4dd
4r
8dd
8dd
=61
8dd
8ee-
4dd
4a
=62
8b-
8a
4g
4cc
=63
8g
8a
4b-
4cc
=64
8g
8a
4b-
4cc
=65
8dd
8ee-
4dd
4a
=66
4.b-
8g
8dd
8ee-
=67
8ff
8gg
4ff
4cc
=68
4dd
4r
8dd
8dd
=69
8dd
8ee-
4dd
4a
=70
4b-
8g
8bb-
8aa
8gg
=71
8gg
8ff
8ee-
8ee-
8dd
8cc
=72
8b-
8a
2g
==
*-
